X:1
T:Title
%%score { ( 1 3 ) | ( 2 4 ) }
L:1/8
Q:1/4=120
M:4/4
K:Gb
V:1 treble nm="Piano" snm="Pno."
V:3 treble 
V:2 treble 
V:4 treble 
V:1
 z4 z2 z z/ z/4 __b/4 | b4- bega | [db]4 .b2 ag | a8 | e4- e b3 | [cb]4- [cb]ega | z4 z2 =c'2 | %7
 [Bb]8 | z2 z d'- d'2 z2 | b2[K:bass] A,,,[K:treble]G/B/[K:bass] A,,,[K:treble]ega | %10
 b2[K:bass] D,,[K:treble]F/A/ b z/ a/[K:bass] D,,[K:treble]g | [B,DF]2 z2 z4 | [E,G,B,DE]2 z2 z4 | %13
 [A,CEG]2 z2 z2 ga | [A,CDFdb]2 .[CA]2 b>a[K:bass] D,,[K:treble]g | %15
 a2[K:bass] G,,,[K:treble]F/A/[K:bass] G,,,2 G,,,F,,, | e2 Gd'/G/[K:bass] E,,,[K:treble]c' z2 | %17
 [A,CEG]2 z2 z2 ga | .[A,CDFAb]2 .[FA]2 b z/ a/[K:bass] D,,[K:treble]g | a2 .A2 z4 | %20
 [E,B,DEBde]2 .[B,G]2 z4 | [A,CEG]2 z2 z2 ga | .[A,CDFb]2 .[A,CFA]2 bF/a/[K:bass] D,,[K:treble]g | %23
 [da]2 AF/A/[K:bass] G,,,2 G,,,F,,, | e2 E,,,d'/G/[K:bass] E,,,c'B,,,A,,, | %25
 .bA/b/[K:bass] A,,,2[K:treble] b/a/e/b/ A,a | .bB/-[Bb]/[K:bass] D,,E[K:treble] b z/ a/ A,g | %27
 [Ba]/Ab/[K:bass] G,,,2[K:treble] b/ab/[K:bass] A,F,,, | z4[K:bass][K:treble] z z/ =c'/ z2 | %29
 (3:2:2[A,B,CEGBb]A,/-A,/b/[K:bass] A,,,2[K:treble] b/A/e/b/[K:bass] A,,,[K:treble]a | %30
 z/ A3/2[K:bass] z2[K:treble] z4 | [Bb]/Ab/[K:bass] G,,,2[K:treble] b/ab/[K:bass] A,F,,, | %32
 (3b/A3/2[Bb] z2 [Dd] z/ =c/ .[A,B]2 | [CEc][A,E]BE- E[CE][CD]D | d[K:bass]D,,[K:treble]BE- EEED | %35
 .d2 EE- EEDD | .[B,DEG]2 z2 z4 | [CE][A,CE][CEB][A,CE] C[A,CE][CD][CD] | %38
 d[K:bass]D,, B z/4 E3/4 A,[K:treble]E[A,DE]D | G[K:bass]G,,, z E- EE[K:treble]DD | %40
 [GBd][K:bass]E,,,BE,,, EE,,,[K:treble] .D2 | [CE][A,E] .B2 [A,E][CE]C[CD] | .[CDE]2 .B2 EEDD | %43
 z[K:bass] .B,3 z4 | .G2 .E2 z4 | [CE][A,CE][CB][A,CE] C[K:bass][CE][CE][D,D] | %46
 .[CDE]2 .[CEB]2 EE[A,CD]D | B[K:bass]G,,,[K:treble] .B2 EEDD | .[DEGBd]2 z2 z2[K:bass] [G,G]G, | %49
 .[G,A,CEGce]2 [G,A,CE]G,/[K:treble]B/ G,eC[G,a] | .[F,A,CDFdb]2 [F,A,DA][F,F]/A/ bF,/a/ Fg | %51
 fG, (3FFA- A[K:bass]G, z2 | .[E,A,B,DEe]2 [A,DE].[A,Ea] z [A,b]B,[K:bass]G, | %53
 .[G,A,CEGAc]2 [G,C][K:treble][G,G]/B/ G,eC[G,a] | %54
 .[A,CDFAdb]2[K:bass] [F,A,][F,F]/[K:treble]A/ b[F,F]/a/ Fg | %55
 a2[K:bass] G,,G,,,/A/ G,G, A,/G,/G,,,/G,/ | eA, [G,A,B,DEG]d'/G/ Ec'[K:bass]A,.G, | %57
 .[G,A,CEGAce]2 [G,C][G,CG]/[K:treble]B/ G,eC[G,a] | %58
 .[D,,F,A,CDFdb]2 [F,A,][K:treble][F,F]/A/ bF,/a/ Fg | fG, (3FFA- A[K:bass]G, z2 | %60
 .[E,A,B,DEe]2 [A,E].[A,Ea] Eb[K:bass]B,G, | (3:2:2c2[K:bass] G, G,G,/[K:treble]B/ G,eC[G,Aa] | %62
 .[D,,F,A,CDFAdb]2 [F,A,DA].[F,F] bF,/a/ FF, | [G,B,DFGBda]2 [FB]F/A/ BF .F2 | %64
 .[E,A,B,DEde]2 [A,E].[A,Ed'] A,c'E[K:bass]E,,, | [CE][K:treble][A,CE] .[CEB]2 C[CE][CDE][CD] | %66
 [CDE]E .[A,CDB]2 EECD | z .E3[K:bass] z4[K:treble] | dD (3:2:2B2[K:bass] E,,, EE,,,[K:treble] D2 | %69
 [A,CEA]E[A,CE][CE] z [CE]CD | E[K:bass]D,,BD,, A,D,,A,[K:treble]D | %71
 .G>[K:bass]F- FE- E[K:treble]EDD | dEB[K:bass]E,,, EE,,,DG,,, | EA, .B2 C[CE]C[CD] | %74
 .[CDE]2 [CB]E- EEA,D | [GBd][K:bass]G,,,[K:treble]BE- EEDD | GE z2 z4 | %77
 [A,CE]A,[CB][A,E]- [A,E]ECD | .E>[K:bass][K:treble]B- BE- EEDD | %79
 .d2[K:bass] G,,,E- EED[K:treble]D | .[DEGd]2 z2 z4 | %81
 .[G,A,CEGAce]2[K:bass] [G,A,C][G,G]/[K:treble]B/ G,eG,a | b[K:bass]F, AF,/[K:treble]A/ bF,/a/ Fg | %83
 .[G,B,DFBfa]2 [B,DF] (3z/4 F/4A- AG, .F2 | .[E,A,B,DEe]2 [G,A,B,E][A,a] z [A,b][B,G]G, | %85
 c2[K:bass] G,[G,G]/[K:treble]B/ G,eGG, | (3:2:2bF/ z [F,A,CDFA][F,A,F]/A/ b[A,CF]/a/ Fg | %87
 a[K:bass]G,[G,F][K:treble].[G,F] G[K:bass]G,G,G, | %88
 .[E,B,DEe]2 [E,G,A,D][K:treble].[E,A,d'] A,c'[K:bass]A,G, | %89
 .[G,A,CEGc]2 [G,A,][G,G]/[K:treble]B/ G,eG,a | b[K:bass]F, AF,/[K:treble]A/ bF,/a/ Ag | %91
 (3:2:2a2[K:bass] G, G,G,- G,G, z2 | .[E,G,A,B,DEe]2 [G,A,].A, z [A,b] z2 | %93
 .[A,CEG]2[K:bass] [G,A,CE]G,/[K:treble]B/ G,e[K:bass]CG, | %94
 .[D,,F,A,CDFAdb]2 [F,A,C]F,/[K:treble]A/ bF,/a/ A,g | %95
 a2[K:bass] G,,[K:treble]F/A/ G[K:bass]G,, .D2 | %96
 .[E,B,DEGBde]2 [A,B,DEG].[A,Ed'] z [G,A,EGc'] .[A,E]2 | .[A,CEGB]>[Bb] z2 [B,B]/A/e/b/ ga | %98
 (3:2:4b/A/-A3/2b/[K:bass] D,,[K:treble]e b>a [A,A]g | %99
 .aA/b/[K:bass] G,,,2[K:treble] b/Ab/[K:bass] G,,,F,,, | z4 z z/ [=c=c']/ z2[K:bass] | %101
 B/b/A/b/[K:bass] A,,,2[K:treble] [B,B]/A/e/b/ ga | z/ a3/2 z2 z4 | %103
 [Ba]/AB/ z2 (3:2:4[B,B]/A/-A3/2B/[K:bass] G,,,F,,, | %104
 z4[K:bass][K:treble] z z/ =c'/ z2[K:bass][K:treble] | b2 B(3:2:2G/B- Bega | %106
 (3:2:2[db]F/-F AF/A/ b(3:2:2F/a- ag | [Bda]2 A.F (3:2:2A2 A4 | e2 Ga/G/ .G,2 b2 | c2 BG- Gega | %110
 [db]2 AF/A/ d'2 c'2 | (3:2:2[Bdb]B,/-B, A/B/.F (3:2:2A2 A4 | %112
 (3:2:2[de]B,/-B, G(3:2:2d'/G- G .c'3 | z8 |] %114
V:2
 z8 | [A,CEG]6 z2 | [A,CDF]4 z4 | [G,B,DF]8 | [E,B,D]6 z2 | [A,CEG]6 z2 | [A,CDF]4 z4 | [G,B,DF]8 | %8
 [E,B,D]4 z4 | [A,,,A,CEG]2 z2 z2 A,,,G,,, | [D,,A,CDFd]2 z2 .D,,2 z F,,, | %11
 G,2 G,,,[K:treble]F/A/[K:bass] G,,,2 G,,,F,,, | E,,,2 E,,,>G E,,,[K:treble]b/G/[K:bass] B,,,A,,, | %13
 A,,,2 A,,,[K:treble]G/B/[K:bass] A,,,eA,,,G,,, | D,,2 D,,[K:treble]F/A/[K:bass] D,,2 z F,,, | %15
 [G,B,DF]2 z2 z4 | %16
 [E,,,E,B,DEB]2 E,,,[K:treble].E z G[K:bass] (3:2:2B,,,G/(3:2:2A,,,[K:treble]__b/ | %17
 A,,,2 A,,,[K:treble]G/B/[K:bass] A,,,eA,,,G,,, | %18
 (3:2:2D,, F2 D,,[K:treble]F/A/[K:bass] .D,,2 z F,,, | %19
 [G,B,DF]2 G,,,[K:treble]F/A/[K:bass] G,,,2 G,,,F,,, | %20
 E,,,2 E,,,[K:treble]a/G/[K:bass] E,,,bB,,,A,,, | A,,,2 A,,,[K:treble]G/B/[K:bass] A,,,eA,,,G,,, | %22
 (3:2:2D,, A,2 D,,[K:treble]F/A/[K:bass] .D,,2 z F,,, | [G,B,DF]2 .G,,,2 z4 | %24
 [E,,,E,B,DE]2 z[K:treble] .E z G z2 | %25
 .[A,,,B,CEGB]A,/[B,B]/ z2 [A,,,B,B]/.[A,A][B,B]/[K:bass] A,,,G,,, | %26
 .[D,,A,CDFBcd]>B, z E, .[D,,G,G]2 D,,F,,, | %27
 [G,B,DF]/A,[K:treble][B,B]/ z2 [G,,,B,B]/[A,A][B,B]/[K:bass] .G,,,2 | %28
 (3[E,,,E,B,DBde]/A,3/2[K:treble][B,B] z2 [E,,,Dd] z/ [=C=c]/[K:bass] B,,,/B,/A,,, | %29
 .A,,,[K:treble]A/[B,B]/ z2 [A,,,B,B]/.A,[B,B]/ z[K:bass] G,,, | %30
 .[D,,A,B,CDFBd]>[K:treble][B,B] z[K:bass] E, D,,>[K:treble]a[K:bass] D,,F,,, | %31
 [G,B,DF]/A,[K:treble][B,B]/ z2 [G,,,B,B]/[A,A][B,B]/[K:bass] .G,,,2 | %32
 z4[K:treble] z z/ =C/[K:bass] z2 | A,A,,,A,A,,,- A,,,A,,,A,A,,, | .[A,CDE]2 DD,,- D,,D,,[A,D]D,, | %35
 .[G,B,DEG]2 G,,,G,,,- G,,,G,,, z G,,, | G,E,,,[K:treble]B[K:bass]E,,, EE,,, D2 | %37
 A,A,,,A,A,,, A,A,,,A,A,,, | .[A,CDE]2 .D2 z D,,A,,D,, | .[G,B,DEF]2 z2 z G,,, z G,,, | %40
 .[G,B,DE]2 z2 z2 F,,,G,,, | A,A,,, .A,2 A,,,A,,,A,A,,, | A,D,, .A,,,2 D,,D,, z D,, | %43
 .[G,B,DEG]2 .G,,,2 z G,,, .B,2 | .[G,B,DE]2 E,,,E,,, EE,,, D2 | A,A,,,A,A,,, A,A,,,A,A,,, | %46
 A,D,, .A,2 D,,D,,A,,D,, | .[G,B,DEF]2 z2 G,,,G,,,B,G,,, | B, E,,,2 E,,,- E,,,E,,,F,,,G,,, | %49
 A,,,G,A,,.A,,, z [A,,G,]G,A,,, | D,,,F,D,,.D,,, [F,A,].D,,[F,A,][D,,,F,] | %51
 .[G,,,G,B,DFB]2 [G,,G,].G,,, z G,,DG,,, | E,,,A, E,,E,,,/[K:treble]G/ A,[K:bass]E,,G,E,,, | %53
 A,,,G,A,,.A,,, z [A,,G,]G,A,,, | D,,,/ z/4 A,/4F, D,,.D,,, [F,A,].D,,[F,A,D][D,,,F,] | %55
 [G,,,G,B,DFGB]2 z2 z G,, z2 | %56
 .[E,,,E,A,B,DE]2 [E,,E,].[E,,,A,E] A,[E,,A,] G, (3z/4 .E,,,3/4[K:treble]__b/ | %57
 A,,,G,A,,.A,,, z [A,,G,]G,A,,, | D,,,F,D,,.[D,,,D,,] F,.D,,[F,A,][D,,,F,] | %59
 .[G,,,G,B,DFBd]2 [G,,G,].G, z G,, G,G,,,/G,/ | %60
 E,,,A, E,,E,,,/[K:treble]G/ A,[K:bass][E,,A,E]G,E,,, | .[A,,,G,A,CEG]2 A,,.A,,, z [A,,G,]G,A,,, | %62
 D,,,F, D,,D,,,/A/ F,D,,/A/ F,D,,, | G,,,2 G,,.G,,, GG,,G,G,,, | %64
 E,,,A, E,,E,,,/G/ G,[E,,G,A,] (3:2:2[G,A,]2 G, | .A,>A,- A,E- EA,,,A,A,,, | %66
 A,D,, .[A,,,B,,]2 D,,D,,A,D,, | .[G,B,DE]2 .G,,,2 z G,,, z G,,, | [B,DEG]E,,, z2 z2 B,2 | %69
 A,,,A,,,E,A,,, A,A,,,A,A,,, | .[A,CD]2 .[A,C]2 z2 A,,D,, | .[G,B,DEF]2 z2 z G,,, z G,,, | %72
 [G,B,DEG]E,,, z2 z2 .F,,,2 | [A,C]A,,, .[A,C]2 A,,,A,,,A,A,,, | A,D,,A,D,,- D,,D,, z D,, | %75
 .[G,B,DE]2 z G,,,- G,,,G,,,B,G,,, | [G,B,DE]E,,,[K:treble] .B2[K:bass] E,,,E,,, D2 | %77
 A,,,A,,,A,A,,,- A,,,A,,,A,A,,, | .[A,CD]2 .[A,C]2 z D,,A,,D,, | %79
 .[G,,G,B,DEFGB]2 z G,,,- G,,,G,,, z G,,, | B, E,,,2 E,,,- E,,,E,,,F,,,G,,, | %81
 (3.A,,,.CG, A,,.A,,, z [A,,G,] z [A,,,G,] | %82
 .[D,,,D,,F,A,CDFAd]2 [D,,F,A,].[D,,,D,,] F,.D,,[F,A,D]D,,, | G,,,G,G,,.G,,, z G,,G,G,,, | %84
 E,,,A,E,,E,,, A,E,,G,E,,, | [A,,,G,A,CEGA]2 A,,.A,,, z [A,,G,][G,A,C]A,,, | %86
 (3:2:2[D,,,D,,A,CDFA]D/F, D,,.D,,, [F,A,] z/4 F,/4A/ [F,A,D][D,,,F,A,F] | %87
 .[G,,,G,B,DFB]2 G,,G,,,/A/ G,G,, z G,,, | E,,,A, E,,E,,,/G/ E,[E,,G,A,]G,E,,, | %89
 A,,,G,A,,.A,,, z [A,,G,] z [A,,,G,] | %90
 .[D,,,D,,D,F,A,CDFAd]2 [D,,F,A,].D,,, F,.D,,[F,A,D][D,,,F,] | %91
 .[G,,,G,B,DFBf]2 G,,G,,,- G,,,G,,G,G,,, | E,,,A, E,,E,,,/[K:treble]G/ A,[K:bass]E,, G,E,,,/G,/ | %93
 (3:2:2A,,,2 G, A,,.A,,, z [A,,G,]G,A,,, | D,,,F,D,,.D,,, [F,A,].D,,F,[D,,,F,__B,] | %95
 [G,,,G,B,DF]2 z .G,,, .G,2 G,G,,, | E,,,A, E,,E,,,/[K:treble]G/ A,[K:bass]E,,G,E,,, | %97
 .A,,,[K:treble]A/B,/[K:bass] A,,,2 A,,,/.A,[K:treble][B,B]/[K:bass] A,,,G,,, | %98
 .[D,,A,CDFB]>[B,B] z[K:bass] [E,E] [D,,G,G]2 D,,F,,, | %99
 .[G,,,G,B,DFGB]A,/[K:treble][B,B]/ z2 [G,,,B,B]/A,[B,B]/ z2 | z4[K:treble] z z/ =C/[K:bass] z2 | %101
 .[A,,,A,CEG]>[K:treble][B,B] z2[K:bass] A,,,/.A,[K:treble][B,B]/[K:bass] A,,,G,,, | %102
 (3[D,,A,CDFB]/A3/2B[K:bass] D,,E, D,,>[K:treble]a[K:bass] D,,F,,, | %103
 [G,B,DF]/A,B,/ G,,,2 (3:2:4G,,,/A,/-A,3/2B,/ z2 | z4 z z/ [=C=c]/ z2 | [A,CEG]2 z2 z4 | %106
 .[A,CDF]2 .[DF]2 z4 | [G,B,DF]2 z2 z4 | [E,G,B,D]2 [G,B,].E z4 | [A,CEG]2 z2 z4 | [A,CDF]2 z2 z4 | %111
 .[G,B,DF]2 .[B,DF]2 z4 | .[E,G,B,D]2 G,[K:treble].E z G2 G | G2 G2 G4 |] %114
V:3
 x8 | x8 | x8 | x8 | x8 | x8 | [db]4 d'2 z _c' | x8 | [de=g]4 c'3- c'/>__b/ | %9
 x2[K:bass] x[K:treble] x[K:bass] x[K:treble] x3 | %10
 x2[K:bass] x[K:treble] x3[K:bass] x[K:treble] x | x8 | x8 | x8 | x6[K:bass] x[K:treble] x | %15
 x2[K:bass] x[K:treble] x[K:bass] x4 | x4[K:bass] x[K:treble] x3 | x8 | x6[K:bass] x[K:treble] x | %19
 x8 | x8 | x8 | x6[K:bass] x[K:treble] x | x4[K:bass] x4 | x4[K:bass] x4 | %25
 x2[K:bass] x2[K:treble] x4 | z/ A3/2[K:bass] z2[K:treble] z4 | %27
 x2[K:bass] x2[K:treble] x2[K:bass] x2 | (3b/A3/2b[K:bass] E,,,2[K:treble] d'b/ z/4 c/4 .[CB]2 | %29
 x2[K:bass] x2[K:treble] x2[K:bass] x[K:treble] x | .b>b[K:bass] D,,E[K:treble] [G,Gb]2 [A,A]g | %31
 x2[K:bass] x2[K:treble] x2[K:bass] x2 | x8 | x8 | x[K:bass] x[K:treble] x6 | x8 | x8 | x8 | %38
 z2[K:bass] z D,, z4[K:treble] | z2[K:bass] G,,,4[K:treble] z2 | x[K:bass] x5[K:treble] x2 | x8 | %42
 x8 | .B2[K:bass] G,,,-[G,,,E]- [G,,,E]EDG,,, | x8 | x5[K:bass] x3 | x8 | %47
 x[K:bass] x[K:treble] x6 | x6[K:bass] x2 | x7/2[K:treble] x9/2 | x8 | x5[K:bass] x3 | %52
 x7[K:bass] x | x3[K:treble] x5 | x2[K:bass] x3/2[K:treble] x9/2 | x2[K:bass] x6 | x6[K:bass] x2 | %57
 x7/2[K:treble] x9/2 | x3[K:treble] x5 | x5[K:bass] x3 | x6[K:bass] x2 | %61
 x4/3[K:bass] x13/6[K:treble] x9/2 | x8 | x8 | x7[K:bass] x | x[K:treble] x7 | x8 | %67
 .[FBd]2[K:bass] G,,,-[G,,,E]- [G,,,E]ED[K:treble]D | x10/3[K:bass] x8/3[K:treble] x2 | x8 | %70
 x[K:bass] x6[K:treble] x | z[K:bass] G,,, G,,,4[K:treble] z2 | x3[K:bass] x5 | x8 | x8 | %75
 x[K:bass] x[K:treble] x6 | x8 | x8 | z[K:bass] D,,[K:treble] D,,4 z2 | x2[K:bass] x5[K:treble] x | %80
 x8 | x2[K:bass] x3/2[K:treble] x9/2 | x[K:bass] x5/2[K:treble] x9/2 | x8 | x8 | %85
 x2[K:bass] x3/2[K:treble] x9/2 | x8 | x[K:bass] x2[K:treble] x2[K:bass] x3 | %88
 x3[K:treble] x3[K:bass] x2 | x7/2[K:treble] x9/2 | x[K:bass] x5/2[K:treble] x9/2 | %91
 x4/3[K:bass] x20/3 | x8 | x2[K:bass] x3/2[K:treble] x5/2[K:bass] x2 | x7/2[K:treble] x9/2 | %95
 x2[K:bass] x[K:treble] x2[K:bass] x3 | x8 | x8 | x2[K:bass] x[K:treble] x5 | %99
 x2[K:bass] x2[K:treble] x2[K:bass] x2 | %100
 (3:2:4e/A/-A3/2B/ z2 .[dd']3/2 z/4 _c'/4 b/B,/[K:bass]A,,, | x2[K:bass] x2[K:treble] x4 | %102
 .bA,/B,/ .b[Ee] [G,Ggb]2 [A,A]g | x6[K:bass] x2 | %104
 .bA/b/[K:bass] E,,,[K:treble]d' d'c'/ z/8 _c'3/8 b/[K:bass]B,/ (3z/4 .A,,,3/4[K:treble]__b/ | x8 | %106
 x8 | x8 | x8 | x8 | x8 | x8 | x8 | x8 |] %114
V:4
 x8 | x8 | x8 | x8 | x8 | x8 | x8 | x8 | x8 | x8 | x8 | x3[K:treble] x[K:bass] x4 | %12
 x5[K:treble] x[K:bass] x2 | x3[K:treble] x[K:bass] x4 | x3[K:treble] x[K:bass] x4 | x8 | %16
 x3[K:treble] x3[K:bass] x5/3[K:treble] x/3 | x3[K:treble] x[K:bass] x4 | %18
 x3[K:treble] x[K:bass] x4 | x3[K:treble] x[K:bass] x4 | x3[K:treble] x[K:bass] x4 | %21
 x3[K:treble] x[K:bass] x4 | x3[K:treble] x[K:bass] x4 | x8 | x3[K:treble] x5 | x6[K:bass] x2 | %26
 x8 | x3/2[K:treble] x9/2[K:bass] x2 | x4/3[K:treble] x14/3[K:bass] x2 | x[K:treble] x6[K:bass] x | %30
 x3/2[K:treble] x3/2[K:bass] x5/2[K:treble] x/[K:bass] x2 | x3/2[K:treble] x9/2[K:bass] x2 | %32
 (3[E,,,E,B,DBde]/A,3/2B, E,,,[K:treble]d' E,,,c'/ z/4 c/4[K:bass] B,,,/B,/A,,, | x8 | x8 | x8 | %36
 x2[K:treble] x[K:bass] x5 | x8 | x8 | x8 | x8 | x8 | x8 | x8 | x8 | x8 | x8 | x8 | x8 | x8 | x8 | %51
 x8 | x7/2[K:treble] x3/2[K:bass] x3 | x8 | x8 | x8 | x23/3[K:treble] x/3 | x8 | x8 | x8 | %60
 x7/2[K:treble] x3/2[K:bass] x3 | x8 | x8 | x8 | x8 | z A,,, A,,,4 z2 | x8 | x8 | x8 | x8 | x8 | %71
 x8 | x8 | x8 | x8 | x8 | x2[K:treble] x2[K:bass] x4 | x8 | x8 | x8 | x8 | x8 | x8 | x8 | x8 | x8 | %86
 z4 z .D,, z2 | x8 | x8 | x8 | x8 | x8 | x7/2[K:treble] x3/2[K:bass] x3 | x8 | x8 | x8 | %96
 x7/2[K:treble] x3/2[K:bass] x3 | x[K:treble] x[K:bass] x7/2[K:treble] x/[K:bass] x2 | %98
 x3[K:bass] x5 | x3/2[K:treble] x13/2 | %100
 (3:2:4[E,,,E,B,DEBd]/A,/-A,3/2B,/ E,,,[K:treble]a E,,,b/ z/4 c/4[K:bass] .[B,,,_CB]2 | %101
 x3/2[K:treble] x5/2[K:bass] x3/2[K:treble] x/[K:bass] x2 | %102
 x2[K:bass] x7/2[K:treble] x/[K:bass] x2 | x8 | %104
 .[E,,,E,B,DEBde]A,/[B,B]/ z2 .[E,,,Dd]3/2 z/8 _c3/8 .[B,,,_CB]2 | x8 | x8 | x8 | x8 | x8 | x8 | %111
 x8 | x3[K:treble] x5 | x8 |] %114

